!!!SOCIAL_FUNCTION:	war songs
!!!PDT:	1929
!!!OTL: No_126_Yonder_the_Flames_Leap_Upward.krn
!!!REG: Southwest
!!!LANG: Non-Tone
!!!LING_GROUP: Uto-Aztecan
**kern
*staff1
*clefF4
*k[b-e-a-d-]
*M2/4
8E-\L
8E-\J
=1
8B-\L
8B-\J
8B-\L
8B-\J
=2
16B-\LK
8.B-\J
8c-\L
8B-\J
=3
8B-\L
8A-\J
8F\L
16F\L
16E-\JJ
=4||
*M3/4
16E-\LK
8.E-\J
16E-\LK
8.E-\J
8F\L
8F\J
=5||
*M2/4
4.E-\
8E-\
=6||
*M3/4
2E-\
8E-\L
8E-\J
=7||
*M2/4
8B-\L
8B-\J
8B-\L
8B-\J
=8
16B-\LK
8.B-\J
8c-\L
8B-\J
=9
8B-\L
8A-\J
8F\L
16F\L
16E-\JJ
=10||
*M3/4
16E-\LK
8.E-\J
16E-\LK
8.E-\J
8F\L
8F\J
=11||
*M2/4
4.E-\
8E-\
=12||
*M3/4
2E-\
8E-\L
8D-\J
=13
8F\L
8F\J
8.A-\L
16F\Jk
16A-\LL
16F\J
8F\J
=14||
*M2/4
4E-\
8E-/L
8C/J
=15
8F\L
8F\J
8E-\L
8E-\J
=16
4E-\
8C/L
8C/J
=17
4.E-\
8E-\
=18||
*M3/4
2E-\
8E-\L
8D-\J
=19
8F\L
8F\J
8.A-\L
16F\Jk
16A-\LL
16F\J
8F\J
=20||
*M2/4
4E-\
8E-/L
8C/J
=21
8F\L
8F\J
8E-\L
8E-\J
=22
4E-\
8C/L
8C/J
=23
4.E-\
8E-\
=24
2E-\
==
*-
